X: 1
T: Lord Seaforth
S: Claire Mann "Claire Mann"
Z: Hiroyuki Yamada
R: strathspey
M: 4/4
L: 1/8
Z: Contributed 20040611225808 by Hiroyuki Yamada slainte_mha@infoseek.jp
K: Gmaj
F|GE G>AB>d|c>AB<G E3A|GE G>AB>e|d>BA<B G3:|
g|(3efg d>g B>gd>B|c>AB<G E3g|(3efg d>g B>gd>B|c>Ad<B G3g|
(3efg d>b c>aB>g|c>AB<G E3A|GE G>AB>e|d>BA<B G3||
